src/assets/icons/messenger.svg

<svg width="24" height="25" viewBox="0 0 24 25" fill="none" xmlns="http://www.w3.org/2000/svg">
<path d="M4.4196 20.1013C1.7232 18.0635 0 14.9612 0 11.4865C0 5.34922 5.3724 0.375 12 0.375C18.6276 0.375 24 5.34922 24 11.4865C24 17.6226 18.6276 22.598 12 22.598C10.7988 22.5991 9.60327 22.4324 8.448 22.103L4.4196 24.375V20.1013ZM10.7196 8.44308L4.2468 15.2436L10.1364 12.0356L13.2144 15.2436L19.6488 8.44308L13.8252 11.5934L10.7184 8.44308H10.7196Z" fill="#303030"/>
</svg>

<svg width="24" height="25" fill="none" xmlns="http://www.w3.org/2000/svg"><path d="M4.42 20.101C1.723 18.064 0 14.961 0 11.487 0 5.348 5.372.374 12 .374s12 4.974 12 11.111c0 6.137-5.372 11.112-12 11.112a12.911 12.911 0 0 1-3.552-.495L4.42 24.375v-4.274Zm6.3-11.658-6.473 6.8 5.89-3.207 3.077 3.208 6.435-6.8-5.824 3.15-3.107-3.15h.002Z" fill="#303030"/></svg>
